src/assets/images/finger.svg

<svg fill="none" height="24" viewBox="0 0 24 24" width="24" xmlns="http://www.w3.org/2000/svg"><g fill="#fff"><path d="m6.39961 9.6c-1.27304 0-2.49394-.50571-3.39411-1.40589-.90018-.90017-1.40589-2.12107-1.40589-3.39411s.50571-2.49394 1.40589-3.39411c.90017-.900177 2.12107-1.40589 3.39411-1.40589h11.19999c1.2731 0 2.4939.505713 3.3941 1.40589.9002.90017 1.4059 2.12107 1.4059 3.39411s-.5057 2.49394-1.4059 3.39411c-.9002.90018-2.121 1.40589-3.3941 1.40589h-3.2v-4c0-1.06087-.4214-2.07828-1.1716-2.82843-.7501-.75014-1.7675-1.17157-2.8284-1.17157-1.06086 0-2.07827.42143-2.82842 1.17157-.75014.75015-1.17157 1.76756-1.17157 2.82843z"/><path d="m10.3998 3.19995c-.63651 0-1.24696.25286-1.69705.70295-.45009.45008-.70295 1.06053-.70295 1.69705v7.28005c-.90349.1844-1.71551.6753-2.29864 1.3896-.58313.7144-.90154 1.6082-.90136 2.5304 0 1.9095.75857 3.7409 2.10884 5.0911 1.35026 1.3503 3.18156 2.1089 5.09116 2.1089h.8c2.1217 0 4.1566-.8429 5.6569-2.3432s2.3431-3.5351 2.3431-5.6568v-1.3648c0-.9111-.3619-1.7849-1.0061-2.4291-.6443-.6442-1.518-1.0061-2.4291-1.0061h-4.5648v-5.60005c0-.63652-.2529-1.24697-.7029-1.69705-.4501-.45009-1.0606-.70295-1.6971-.70295z"/></g></svg>

<svg width="24" height="24" viewBox="0 0 24 24" fill="none" xmlns="http://www.w3.org/2000/svg">
<path d="M6.39961 9.6C5.12657 9.6 3.90567 9.09429 3.0055 8.19411C2.10532 7.29394 1.59961 6.07304 1.59961 4.8C1.59961 3.52696 2.10532 2.30606 3.0055 1.40589C3.90567 0.505713 5.12657 0 6.39961 0L17.5996 0C18.8727 0 20.0935 0.505713 20.9937 1.40589C21.8939 2.30606 22.3996 3.52696 22.3996 4.8C22.3996 6.07304 21.8939 7.29394 20.9937 8.19411C20.0935 9.09429 18.8727 9.6 17.5996 9.6H14.3996V5.6C14.3996 4.53913 13.9782 3.52172 13.228 2.77157C12.4779 2.02143 11.4605 1.6 10.3996 1.6C9.33874 1.6 8.32133 2.02143 7.57118 2.77157C6.82104 3.52172 6.39961 4.53913 6.39961 5.6V9.6Z" fill="white"/>
<path d="M10.3998 3.19995C9.76329 3.19995 9.15284 3.45281 8.70275 3.9029C8.25266 4.35298 7.9998 4.96343 7.9998 5.59995V12.88C7.09631 13.0644 6.28429 13.5553 5.70116 14.2696C5.11803 14.984 4.79962 15.8778 4.7998 16.8C4.7998 18.7095 5.55837 20.5409 6.90864 21.8911C8.2589 23.2414 10.0902 24 11.9998 24H12.7998C14.9215 24 16.9564 23.1571 18.4567 21.6568C19.957 20.1565 20.7998 18.1217 20.7998 16V14.6352C20.7998 13.7241 20.4379 12.8503 19.7937 12.2061C19.1494 11.5619 18.2757 11.2 17.3646 11.2H12.7998V5.59995C12.7998 4.96343 12.5469 4.35298 12.0969 3.9029C11.6468 3.45281 11.0363 3.19995 10.3998 3.19995Z" fill="white"/>
</svg>
